X:1
T:Nawe und lustige weltliche deutsche Liedlein
T:Ein Hennlein weiß
T:Antonio Scandello
T:Ein Hennlein weiß
T:No. 14 in Neue und lustige weltliche deutsche Liedlein
T:CPDL   —   Creative Commons Attribution Non Commercial 3.0
T:CPDL   —   Creative Commons Attribution Non Commercial 3.0
T:CPDL   —   Creative Commons Attribution Non Commercial 3.0
T:CPDL   —   Creative Commons Attribution Non Commercial 3.0
C:Antonio Scandello
Z:CPDL   —   Creative Commons Attribution Non Commercial 3.0
%%score [ 1 2 3 4 ]
L:1/8
M:4/4
K:Eb
V:1 treble nm="Diskant"
V:2 treble nm="Alt"
V:3 treble-8 nm="Tenor"
V:4 bass nm="Bass"
V:1
"^Orig. in F-Dur" B4 c2 d2 |: e2 z B c2 B2 | B2 =A2 B3 B | B2 B2 c3 c | d2 B2 B2 =A2 |1 B4 z2 B2 | %6
w: Ein Henn- lein|weiß, ein Henn- lein|weiß mit gan- zem|Fleiß sucht sei- ne|Speis bei ei- nem|Hahn, ein|
 c2 d2 :|2 B8 || z8 | z2 GG GGGG | A2 GG A2 cc | cc e4 cc | e3 B B2 A2 | B2 B2 B2 BB | BB c2 BBBB | %15
w: Henn- lein|Hahn||ka ka ka ka ka ka|ney, ka ka ney, ka ka|ka ka ney, ka ka|ney, das Henn- lein|legt ein Ei, ka ka|ka ka ney, ka ka ka ka|
 e2 cc e2 BB | BB e4 c2 | B2 B2 B2 =A2 | B4 z G2 G | GABB c3 A | GF G3 G2 F | F2 G2 A2 F2 | %22
w: ney, ka ka ney, ka ka|ka ka ney, das|Henn- lein legt ein|Ei. Ba- cken|wir ein Kü- che- lein, ein|Kü- che- lein, Mäu- se-|lein und Sträu- be-|
[M:3/4] G4 F2 | =E3 E E2 | F2 F2 G2 | A4 A2 | c3 c c2 | B2 A2 G2 | =A4 B2 | G2 F4 |[M:4/4] G4 z4 | %31
w: lein, und|trin- ken auch|den küh- len|Wein, und|trin- ken auch|den küh- len|Wein, den|küh- len|Wein,|
 z2 GG GGGG | A2 GG A2 cc | cc e4 cc | e3 B B2 A2 | B2 B2 B2 BB | BB c2 BBBB | e2 cc e2 BB | %38
w: ka ka ka ka ka ka|ney, ka ka ney, ka ka|ka ka ney, ka ka|ney, das Henn- lein|legt ein Ei, ka ka|ka ka ney, ka ka ka ka|ney, ka ka ney, ka ka|
 BB e4 c2 | B2 B2 B2 =A2 | B6 G2 | E2 E2 F2 F2 | G8 |] %43
w: ka ka ney, das|Henn- lein legt ein|Ei, das|Henn- lein legt ein|Ei.|
V:2
 G4 A2 A2 |: B2 z G A2 F2 | G2 F2 F3 F | F2 G2 A3 G | B2 G2 F2 F2 |1 F4 z2 G2 | A2 A2 :|2 %7
w: Ein Henn- lein|weiß, ein Henn- lein|weiß mit gan- zem|Fleiß sucht sei- ne|Speis bei ei- nem|Hahn, ein|Henn- lein|
 D4 z2 B,2 || B,2 B,2 B,B, E2 | EEEE EE E2 | EEEE EE A2- | A2 EE G2 AA | A2 G2 F2 E2 | %13
w: Hahn und|hub zu gack- sen an:|ka ka ka ka ka ka ney,|ka ka ka ka ka ka ney,|_ ka ka ney, ka ka|ney, das Henn- lein|
 F2 F2 G2 GG | GG A2 GG F2 | GG A2 GG F2 | GGGG A2 F2 | G2 G2 F2 F2 | D4 z E2 E | EEDD C3 E | %20
w: legt ein Ei, ka ka|ka ka ney, ka ka ney,|ka ka ney, ka ka ney,|ka ka ka ka ney, das|Henn- lein legt ein|Ei. Ba- cken|wir ein Kü- che- lein, ein|
 EC E3 E2 C | D2 E2 E2 D2 |[M:3/4] E4 C2 | C3 C C2 | C2 D2 E2 | E4 E2 | A3 A A2 | G2 F2 E2 | %28
w: Kü- che- lein, Mäu- se-|lein und Sträu- be-|lein, und|trin- ken auch|den küh- len|Wein, und|trin- ken auch|den küh- len|
 F4 F2 | E4 D2 |[M:4/4] E2 B,B, B,B,B,B, | E2 EE EE E2 | EEEE EE A2- | A2 EE G2 AA | A2 G2 F2 E2 | %35
w: Wein, den|küh- len|Wein, ka ka ka ka ka ka|ney, ka ka ka ka ney,|ka ka ka ka ka ka ney,|_ ka ka ney, ka ka|ney, das Henn- lein|
 F2 F2 G2 GG | GG A2 GG F2 | GG A2 GG F2 | GGGG A2 A2 | F2 G2 F2 F2 | D6 E2 | C2 E2 E2 D2 | E8 |] %43
w: legt ein Ei, ka ka|ka ka ney, ka ka ney,|ka ka ney, ka ka ney,|ka ka ka ka ney, das|Henn- lein legt ein|Ei, das|Henn- lein legt ein|Ei.|
V:3
 e4 e2 f2 |: g2 z e e2 d2 | e2 c2 d3 d | d2 e2 e3 e | f2 e2 c2 c2 |1 d4 z2 e2 | e2 f2 :|2 B8 || %8
w: Ein Henn- lein|weiß, ein Henn- lein|weiß mit gan- zem|Fleiß sucht sei- ne|Speis bei ei- nem|Hahn, ein|Henn- lein|Hahn|
 z8 | z2 BB cBcB | c2 BB c2 cc | e2 cc e4- | e2 e2 d2 e2 | e2 d2 e2 ee | ee e2 ee d2 | %15
w: |ka ka ka ka ka ka|ney, ka ka ney, ka ka|ney, ka ka ney,|_ das Henn- lein|legt ein Ei, ka ka|ka ka ney, ka ka ney,|
 ee e2 ee d2 | eeBB c2 c2 | d2 e2 c2 c2 | B4 z B2 B | cAAG A3 c | B=A B3 c2 A | B2 B2 c2 B2 | %22
w: ka ka ney, ka ka ney,|ka ka ka ka ney, das|Henn- lein legt ein|Ei Ba- cken|wir ein Kü- che- lein, ein|Kü- che- lein, Mäu- se-|lein und Sträu- be-|
[M:3/4] B4 A2 | G3 G G2 | A2 B2 B2 | c4 c2 | e3 e e2 | e2 c2 c2 | c4 d2 | B2 B4 |[M:4/4] B4 z4 | %31
w: lein, und|trin- ken auch|den küh- len|Wein, und|trin- ken auch|den küh- len|Wein, den|küh- len|Wein,|
 z2 BB cBcB | c2 BB c2 ee | e2 cc e4- | e2 e2 d2 e2 | e2 d2 e2 ee | ee e2 ee d2 | ee e2 ee d2 | %38
w: ka ka ka ka ka ka|ney, ka ka ney, ka ka|ney, ka ka ney,|_ das Henn- lein|legt ein Ei, ka ka|ka ka ney, ka ka ney,|ka ka ney, ka ka ney,|
 eeBB c2 c2 | d2 e2 c2 c2 | B6 B2 | A2 G2 B2 B2 | B8 |] %43
w: ka ka ka ka ney, das|Henn- lein legt ein|Ei, das|Henn- lein legt ein|Ei.|
V:4
 E,4 A,2 F,2 |: E,2 z E, A,2 B,2 | E,2 F,2 B,3 B, | B,2 E,2 A,3 C | B,2 E,2 F,2 F,2 |1 %5
w: Ein Henn- lein|weiß, ein Henn- lein|weiß mit gan- zem|Fleiß sucht sei- ne|Speis bei ei- nem|
 B,,4 z2 E,2 | A,2 F,2 :|2 B,,8 || z8 | z2 E,E, E,E,E,E, | A,2 E,E, A,2 A,A, | A,A, A,2 E,E, A,2- | %12
w: Hahn, ein|Henn- lein|Hahn||ka ka ka ka ka ka|ney, ka ka ney, ka ka|ka ka ney, ka ka ney,|
 A,2 E,2 B,2 C2 | B,2 B,2 E,2 E,E, | E,E, A,2 E,E, B,2 | E,E, A,2 E,E, B,2 | E,E,E,E, A,2 A,2 | %17
w: _ das Henn- lein|legt ein Ei, ka ka|ka ka ney, ka ka ney,|ka ka ney, ka ka ney,|ka ka ka ka ney, das|
 G,2 E,2 F,2 F,2 | B,,4 z E,2 E, | C,C,B,,B,, A,,3 A,, | E,F, E,3 C,2 F, | B,,2 E,2 A,,2 B,,2 | %22
w: Henn- lein legt ein|Ei. Ba- cken|wir ein Kü- che- lein, ein|Kü- che- lein, Mäu- se-|lein und Sträu- be-|
[M:3/4] E,4 F,2 | C,3 C, C,2 | F,2 B,,2 E,2 | A,,4 A,2 | A,3 A, A,2 | E,2 F,2 C,2 | F,4 B,,2 | %29
w: lein, und|trin- ken auch|den küh- len|Wein, und|trin- ken auch|den küh- len|Wein, den|
 E,2 B,,4 |[M:4/4] E,4 z4 | z2 E,E, E,E,E,E, | A,2 E,E, A,2 A,A, | A,A, A,2 E,E, A,2- | %34
w: küh- len|Wein,|ka ka ka ka ka ka|ney, ka ka ney, ka ka|ney, ka ney, ka ka ney,|
 A,2 E,2 B,2 C2 | B,2 B,2 E,2 E,E, | E,E, A,2 E,E, B,2 | E,E, A,2 E,E, B,2 | E,E,E,E, A,2 A,2 | %39
w: _ das Henn- lein|legt ein Ei, ka ka|ka ka ney, ka ka ney,|ka ka ney, ka ka ney,|ka ka ka ka ney, das|
 B,2 E,2 F,2 F,2 | B,,6 E,2 | A,,2 C,2 B,,2 B,,2 | E,8 |] %43
w: Henn- lein legt ein|Ei, das|Henn- lein legt ein|Ei.|

